X: 1444
T: Frank Collins' No 4 Jig
B: australian traditional tunes wiki
M:6/8
L:1/8
R: Jig
Q: 3/8=100
K:D
V:1 
A|:"D"ddd dcd|fee"A7"e2g|"D"fed faA|"A7"ABc"D"d2A|
"D"ddd dcd|fee"A7"e2g|"D"fed faA|"A7"ABc"D"d2a:|
|:"D"afd dfa|agf"G"g2b|"D"afd dfa|agf"A7"e2f|
"Em"gag gag|"A7"ABAA2g|"D"fed eaA|"A"ABc"D"d2z:||
% abcbook-tune_id 6342d53a3098f90fea1c7d1f


% abcbook-boost 0
% abcbook-tablature 
% abcbook-transpose 
% abcbook-lastupdated 1665324365370
% abcbook-soundfonts 
% abcbook-repeats 1
% NFF Book 2010

